X:1
T:Wir Pflügen, 76.76 D refrain
T:Wir Pflügen, 76.76 D refrain
T:Johann Abraham Peter Schulz, 1800
T:Public Domain Courtesy of the Cyber Hymnal™
C:Johann Abraham Peter Schulz, 1800
Z:Public Domain
Z:Courtesy of the Cyber Hymnal™
%%score ( 1 2 ) ( 3 4 )
L:1/8
M:4/4
K:A
V:1 treble 
V:2 treble 
V:3 bass 
V:4 bass 
V:1
 E2 | A2 A2 E2 E2 | c4 A2 E2 | D2 C2 B,2 A,2 | E6 [EA]2 | [EG]2 [^DF]2 E2 [Ec]2 | %6
 [EB]2 [^DA]2 [EG]2 E2 | [EF]2 [Ec]2 [^DB]2 [B,D]2 | [B,E]6 E2 | [EB]2 [EB]2 [Ec]2 [Ec]2 | %10
 [Ed]4 [EB]2 [EB]2 | [Ee]2 [Ee]2 [Ed]2 [Ec]2 | [EB]6 E2 | A2 A2 E2 E2 | F4 C2 C2 | D3 B, E2 [DG]2 | %16
 [CA]8 | [CA]2 [CA]2 [CA]2 [CA]2 | [EB]4 [EB]2 [GB]2 | [Ac]3 [Ae] [Gd]2 [Ac]2 | [GB]6 [EB]2 | %21
 [Ec]2 [EB]2 [Ec]3 [EB] | [CA]2 [^EG]2 [FA]3 =E | [DF]2 [FB]2 (A2 G2) | [EA]6 |] %25
V:2
 E2 | A2 A2 E2 E2 | c4 A2 E2 | D2 C2 B,2 A,2 | E6 x2 | x4 E2 x2 | x6 E2 | x8 | x8 | x8 | x8 | x8 | %12
 x6 E2 | A2 A2 E2 E2 | F4 C2 C2 | D3 B, E2 x2 | x8 | x8 | x8 | x8 | x8 | x8 | x7 E | x4 E4 | x6 |] %25
V:3
 E,2 | A,2 A,2 E,2 E,2 | C4 A,2 E,2 | D,2 C,2 B,,2 A,,2 | E,6 [C,A,]2 | %5
 [B,,B,]2 [A,,B,]2 [G,,B,]2 [A,,A,]2 | (G,2 F,2) [C,E,]2 [G,,B,]2 | %7
 [A,,C]2 [A,,F,]2 [B,,F,]2 [B,,A,]2 | [E,G,]6 E,2 | [D,G,]2 [D,G,]2 [C,A,]2 [C,A,]2 | %10
 [B,,A,]4 [E,G,]2 [D,G,]2 | [C,A,]2 [C,A,]2 [B,,G,]2 [A,,A,]2 | [E,G,]6 E,2 | A,2 A,2 E,2 E,2 | %14
 F,4 C,2 C,2 | D,3 B,, E,2 [E,B,]2 | [A,,A,]8 | [A,,E,]2 E,2 [C,A,]2 [A,,C]2 | %18
 [E,G,]4 [E,G,]2 [E,E]2 | [A,E]3 [CE] [B,E]2 [A,E]2 | [E,E]6 [E,B,]2 | A,2 [E,G,]2 A,3 [E,G,] | %22
 F,2 [C,C]2 [F,C]3 [C,A,] | [D,A,]2 [B,,D]2 (C2 B,2) | [A,,C]6 |] %25
V:4
 E,2 | A,2 A,2 E,2 E,2 | C4 A,2 E,2 | D,2 C,2 B,,2 A,,2 | E,6 x2 | x8 | B,,4 x4 | x8 | x6 E,2 | %9
 x8 | x8 | x8 | x6 E,2 | A,2 A,2 E,2 E,2 | F,4 C,2 C,2 | D,3 B,, E,2 x2 | x8 | x2 E,2 x4 | x8 | %19
 x8 | x8 | A,2 A,3 x3 | F,2 x6 | x4 E,4 | x6 |] %25

